X:672
T: "Trotz Napoleon"
N: Z1353
O: Europa, Mitteleuropa, Deutschland, Schlesien
R: Zech -, Schalks - Lied
M: 4/4
L: 1/8
K: G
D2 | BAGFG2DD | EEFFG2
D2 | BAGFG2DD | EEFFG2z
B | A2AAAGAB | c2B2A2z
B | A2AAAGAB | c2B2A2
GB | d2DDG2GB | d2DDG2
GB | d2DDG2GB | d2DDG2
BB | B2BBB2BB | BBBBBB
BB | BBBBB2z2 |
d3cB2B2 | A2A2GABc |
d3cB2B2 | A2A2G2

@@@ Tune index: 10430
